ui/StatusQ/src/assets/img/icons/tiny/chevron-right.svg

<svg fill="none" height="16" viewBox="0 0 16 16" width="16" xmlns="http://www.w3.org/2000/svg"><path clip-rule="evenodd" d="m5.96967 4.96967c-.29289.29289-.29289.76777 0 1.06066l2.11612 2.11612c.19526.19526.19526.51184 0 .7071l-2.11612 2.11615c-.29289.2929-.29289.7677 0 1.0606s.76777.2929 1.06066 0l2.99997-2.99997c.2929-.29289.2929-.76777 0-1.06066l-2.99997-3c-.29289-.29289-.76777-.29289-1.06066 0z" fill="#000" fill-rule="evenodd"/></svg>

<svg width="16" height="16" viewBox="0 0 16 16" fill="none" xmlns="http://www.w3.org/2000/svg">
<path fill-rule="evenodd" clip-rule="evenodd" d="M5.96967 4.96967C5.67678 5.26256 5.67678 5.73744 5.96967 6.03033L8.08579 8.14645C8.28105 8.34171 8.28105 8.65829 8.08579 8.85355L5.96967 10.9697C5.67678 11.2626 5.67678 11.7374 5.96967 12.0303C6.26256 12.3232 6.73744 12.3232 7.03033 12.0303L10.0303 9.03033C10.3232 8.73744 10.3232 8.26256 10.0303 7.96967L7.03033 4.96967C6.73744 4.67678 6.26256 4.67678 5.96967 4.96967Z" fill="black"/>
</svg>
